icons/dashed-square-a.svg

<svg width="24" height="24" viewBox="0 0 24 24" fill="none" xmlns="http://www.w3.org/2000/svg">
<path fill-rule="evenodd" clip-rule="evenodd" d="M9 3.75C8.64963 3.75 8.30755 3.78474 7.97682 3.8508C7.57062 3.93192 7.17558 3.66839 7.09446 3.2622C7.01334 2.85601 7.27686 2.46096 7.68305 2.37984C8.10973 2.29463 8.5502 2.25 9 2.25H10.5C10.9142 2.25 11.25 2.58579 11.25 3C11.25 3.41421 10.9142 3.75 10.5 3.75H9ZM12.75 3C12.75 2.58579 13.0858 2.25 13.5 2.25H15C15.4498 2.25 15.8903 2.29463 16.3169 2.37984C16.7231 2.46096 16.9867 2.85601 16.9055 3.2622C16.8244 3.66839 16.4294 3.93192 16.0232 3.8508C15.6925 3.78474 15.3504 3.75 15 3.75H13.5C13.0858 3.75 12.75 3.41421 12.75 3ZM6.29297 3.59739C6.5239 3.94126 6.43234 4.40723 6.08847 4.63815C5.51621 5.02246 5.02246 5.51621 4.63815 6.08847C4.40723 6.43234 3.94126 6.5239 3.59739 6.29297C3.25353 6.06204 3.16197 5.59608 3.3929 5.25221C3.88571 4.51837 4.51837 3.88571 5.25221 3.3929C5.59608 3.16197 6.06204 3.25353 6.29297 3.59739ZM17.707 3.59739C17.938 3.25353 18.4039 3.16197 18.7478 3.3929C19.4816 3.88571 20.1143 4.51837 20.6071 5.25221C20.838 5.59608 20.7465 6.06204 20.4026 6.29297C20.0587 6.5239 19.5928 6.43234 19.3618 6.08847C18.9775 5.51621 18.4838 5.02246 17.9115 4.63815C17.5677 4.40723 17.4761 3.94126 17.707 3.59739ZM3.2622 7.09446C3.66839 7.17558 3.93192 7.57062 3.8508 7.97682C3.78474 8.30755 3.75 8.64963 3.75 9V10.5C3.75 10.9142 3.41421 11.25 3 11.25C2.58579 11.25 2.25 10.9142 2.25 10.5V9C2.25 8.5502 2.29463 8.10973 2.37984 7.68305C2.46096 7.27686 2.85601 7.01334 3.2622 7.09446ZM20.7378 7.09446C21.144 7.01334 21.539 7.27686 21.6202 7.68305C21.7054 8.10973 21.75 8.5502 21.75 9V10.5C21.75 10.9142 21.4142 11.25 21 11.25C20.5858 11.25 20.25 10.9142 20.25 10.5V9C20.25 8.64963 20.2153 8.30755 20.1492 7.97682C20.0681 7.57062 20.3316 7.17558 20.7378 7.09446ZM3 12.75C3.41421 12.75 3.75 13.0858 3.75 13.5V15C3.75 15.3504 3.78474 15.6925 3.8508 16.0232C3.93192 16.4294 3.66839 16.8244 3.2622 16.9055C2.85601 16.9867 2.46096 16.7231 2.37984 16.3169C2.29463 15.8903 2.25 15.4498 2.25 15V13.5C2.25 13.0858 2.58579 12.75 3 12.75ZM21 12.75C21.4142 12.75 21.75 13.0858 21.75 13.5V15C21.75 15.4498 21.7054 15.8903 21.6202 16.3169C21.539 16.7231 21.144 16.9867 20.7378 16.9055C20.3316 16.8244 20.0681 16.4294 20.1492 16.0232C20.2153 15.6925 20.25 15.3504 20.25 15V13.5C20.25 13.0858 20.5858 12.75 21 12.75ZM3.59739 17.707C3.94126 17.4761 4.40723 17.5677 4.63815 17.9115C5.02246 18.4838 5.51621 18.9775 6.08847 19.3618C6.43234 19.5928 6.5239 20.0587 6.29297 20.4026C6.06204 20.7465 5.59608 20.838 5.25221 20.6071C4.51837 20.1143 3.88571 19.4816 3.3929 18.7478C3.16197 18.4039 3.25353 17.938 3.59739 17.707ZM20.4026 17.707C20.7465 17.938 20.838 18.4039 20.6071 18.7478C20.1143 19.4816 19.4816 20.1143 18.7478 20.6071C18.4039 20.838 17.938 20.7465 17.707 20.4026C17.4761 20.0587 17.5677 19.5928 17.9115 19.3618C18.4838 18.9775 18.9775 18.4838 19.3618 17.9115C19.5928 17.5677 20.0587 17.4761 20.4026 17.707ZM7.09446 20.7378C7.17558 20.3316 7.57062 20.0681 7.97682 20.1492C8.30755 20.2153 8.64963 20.25 9 20.25H10.5C10.9142 20.25 11.25 20.5858 11.25 21C11.25 21.4142 10.9142 21.75 10.5 21.75H9C8.5502 21.75 8.10973 21.7054 7.68305 21.6202C7.27686 21.539 7.01334 21.144 7.09446 20.7378ZM16.9055 20.7378C16.9867 21.144 16.7231 21.539 16.3169 21.6202C15.8903 21.7054 15.4498 21.75 15 21.75H13.5C13.0858 21.75 12.75 21.4142 12.75 21C12.75 20.5858 13.0858 20.25 13.5 20.25H15C15.3504 20.25 15.6925 20.2153 16.0232 20.1492C16.4294 20.0681 16.8244 20.3316 16.9055 20.7378Z" fill="black"/>
</svg>

<svg xmlns="http://www.w3.org/2000/svg" fill="none" viewBox="0 0 24 24">
  <path fill="#000" fill-rule="evenodd" d="M9 3.75c-.35 0-.692.035-1.023.1a.75.75 0 0 1-.294-1.47A6.72 6.72 0 0 1 9 2.25h1.5a.75.75 0 0 1 0 1.5H9ZM12.75 3a.75.75 0 0 1 .75-.75H15c.45 0 .89.045 1.317.13a.75.75 0 1 1-.294 1.47A5.22 5.22 0 0 0 15 3.75h-1.5a.75.75 0 0 1-.75-.75Zm-6.457.597a.75.75 0 0 1-.205 1.041 5.326 5.326 0 0 0-1.45 1.45.75.75 0 1 1-1.245-.836 6.825 6.825 0 0 1 1.86-1.86.75.75 0 0 1 1.04.205Zm11.414 0a.75.75 0 0 1 1.04-.204 6.826 6.826 0 0 1 1.86 1.86.75.75 0 1 1-1.245.835 5.325 5.325 0 0 0-1.45-1.45.75.75 0 0 1-.205-1.04ZM3.262 7.094a.75.75 0 0 1 .589.883A5.22 5.22 0 0 0 3.75 9v1.5a.75.75 0 0 1-1.5 0V9c0-.45.045-.89.13-1.317a.75.75 0 0 1 .882-.589Zm17.476 0a.75.75 0 0 1 .882.589c.085.427.13.867.13 1.317v1.5a.75.75 0 0 1-1.5 0V9c0-.35-.035-.692-.1-1.023a.75.75 0 0 1 .588-.883ZM3 12.75a.75.75 0 0 1 .75.75V15c0 .35.035.693.1 1.023a.75.75 0 1 1-1.47.294A6.72 6.72 0 0 1 2.25 15v-1.5a.75.75 0 0 1 .75-.75Zm18 0a.75.75 0 0 1 .75.75V15c0 .45-.045.89-.13 1.317a.75.75 0 0 1-1.47-.294c.065-.33.1-.673.1-1.023v-1.5a.75.75 0 0 1 .75-.75ZM3.597 17.707a.75.75 0 0 1 1.041.204 5.325 5.325 0 0 0 1.45 1.45.75.75 0 0 1-.836 1.246 6.826 6.826 0 0 1-1.86-1.86.75.75 0 0 1 .205-1.04Zm16.806 0a.75.75 0 0 1 .204 1.04 6.826 6.826 0 0 1-1.86 1.86.75.75 0 0 1-.835-1.245 5.324 5.324 0 0 0 1.45-1.45.75.75 0 0 1 1.04-.205Zm-13.309 3.03a.75.75 0 0 1 .883-.588c.33.066.673.101 1.023.101h1.5a.75.75 0 0 1 0 1.5H9c-.45 0-.89-.045-1.317-.13a.75.75 0 0 1-.589-.882Zm9.811 0a.75.75 0 0 1-.588.883 6.72 6.72 0 0 1-1.317.13h-1.5a.75.75 0 0 1 0-1.5H15c.35 0 .693-.035 1.023-.1a.75.75 0 0 1 .883.588Z" clip-rule="evenodd"/>
</svg>
